Hatter-kde/actions/24/draw-triangle3.svg

<svg xmlns="http://www.w3.org/2000/svg" viewBox="0 0 24 24">
  <defs id="defs3051">
    <style type="text/css" id="current-color-scheme">
      .ColorScheme-Text {
        color:#363636;
      }
      </style>
  </defs>
 <path style="fill:currentColor;fill-opacity:1;stroke:none" 
     d="M 12 4 L 3.6445312 18.857422 L 3 20 L 4.125 20 L 19.699219 20 L 21 20 L 20.355469 18.857422 L 12 4 z M 12 6.3125 L 19.054688 18.857422 L 4.78125 18.857422 L 12 6.3125 z "
     class="ColorScheme-Text"
     />
</svg>

<?xml version="1.0" encoding="UTF-8"?>
<svg viewBox="0 0 24 24" xmlns="http://www.w3.org/2000/svg">
 <defs id="defs3051">
  <style id="current-color-scheme" type="text/css">.ColorScheme-Text {
        color:#363636;
      }</style>
 </defs>
 <path class="ColorScheme-Text" d="m12 4-8.3555 14.857-0.64453 1.1426h1.125 15.574 1.3008l-0.64453-1.1426-8.3555-14.857zm0 2.3125 7.0547 12.545h-14.273l7.2188-12.545z" fill="currentColor"/>
</svg>
